X: 44
T:Fer Lyskerys
M:4/4
L:1/8
R:reel
Z:bil@blueskiesink.com
K:G
D2|D2 GG G2 FG|E2 FG A2 FD|D2 GF E2 AG|F2 EF G3 D2:|!
G2 G2 G3 A|G2 FE D2 Bc|d2 d2 cBAc|B6 D2|G2 G2 G2 A2|
G2 FE D2 GB|Bc d2 cBAG|B2 D2 D2 GA|Bc d2 cBAF|G6 z||

